picto/people-with-limited-mobility-frail-framed.svg

<svg class="color-immutable" width="30" height="30" viewBox="0 0 30 30" fill="none" xmlns="http://www.w3.org/2000/svg"><path d="M29.9998 0H0V29.9998H29.9998V0Z" fill="#2D327D"/><path d="M25.4999 2.99998C26.3249 2.99998 26.9999 3.67498 26.9999 4.49998V25.4999C26.9999 26.3249 26.3249 26.9999 25.4999 26.9999H4.49998C3.67498 26.9999 2.99998 26.3249 2.99998 25.4999V4.49998C2.99998 3.67498 3.67498 2.99998 4.49998 2.99998H25.4999ZM25.4999 2.62499H4.49998C3.46611 2.62499 2.62499 3.46611 2.62499 4.49998V25.4999C2.62499 26.5337 3.46611 27.3749 4.49998 27.3749H25.4999C26.5337 27.3749 27.3749 26.5337 27.3749 25.4999V4.49998C27.3749 3.46611 26.5337 2.62499 25.4999 2.62499Z" fill="white"/><path d="M17.4986 19.5093H13.1955V19.5124H12.3268C12.1786 19.5124 12.0237 19.3942 11.9855 19.2498L9.48897 9.8809C9.48395 9.86245 9.4772 9.84182 9.46827 9.81925L9.41495 9.6157C9.3599 9.41178 9.14975 9.2905 8.9468 9.34443C8.7425 9.39865 8.62025 9.60895 8.67545 9.8131L10.8481 17.9731C10.8507 17.9726 10.8507 17.9726 10.8507 17.9726L11.3973 20.0167C11.4354 20.1606 11.5902 20.2782 11.7378 20.2782H17.232C17.2446 20.2782 17.2616 20.2765 17.2756 20.2754H17.4988C17.711 20.2754 17.8815 20.105 17.8815 19.8933C17.8813 19.6809 17.7108 19.5093 17.4986 19.5093Z" fill="white"/><path d="M21.3279 22.9883L20.1177 17.9018C20.0194 17.5476 19.6514 17.2711 19.2867 17.2705H18.4767C18.6348 16.9119 18.7226 16.5147 18.7226 16.0973C18.7226 14.481 17.4113 13.1704 15.7956 13.1704C15.5535 13.1704 15.32 13.2009 15.0951 13.2567L15.0534 13.0998C15.0488 13.0842 15.0397 13.0649 15.0355 13.0465L14.8334 12.2742C14.6229 11.47 13.7998 10.9887 12.9954 11.201C12.1915 11.4111 11.7099 12.2354 11.9227 13.0389H11.9209L12.0103 13.3798C12.0079 13.3791 12.0055 13.3789 12.0031 13.3782L12.3871 14.8162L12.8758 16.6756L12.8803 16.6742L13.2609 18.1337C13.3539 18.4798 13.7225 18.7627 14.0803 18.7627L18.7635 18.7599L19.3354 21.177H19.3323C19.3354 21.1898 19.3385 21.2029 19.3427 21.2147C19.3457 21.2278 19.3488 21.2406 19.3529 21.2526L19.8516 23.3603C19.9686 23.6852 20.2883 23.8964 20.6393 23.8648C21.0605 23.8265 21.3734 23.4519 21.3347 23.0296C21.3334 23.0156 21.3299 23.002 21.3279 22.9883Z" fill="white"/><path d="M14.3672 9.18024C14.3672 10.007 13.6964 10.6778 12.8679 10.6778C12.0404 10.6778 11.3702 10.0071 11.3702 9.18024C11.3702 8.3518 12.0405 7.68062 12.8679 7.68062C13.6964 7.6807 14.3672 8.35187 14.3672 9.18024Z" fill="white"/></svg>

<svg class="color-immutable" width="30" height="30" viewBox="0 0 30 30" fill="none" xmlns="http://www.w3.org/2000/svg"><path d="M30 0H0v30h30V0Z" fill="#2D327D"/><path d="M25.5 3c.825 0 1.5.675 1.5 1.5v21c0 .825-.675 1.5-1.5 1.5h-21c-.825 0-1.5-.675-1.5-1.5v-21C3 3.675 3.675 3 4.5 3h21Zm0-.375h-21A1.877 1.877 0 0 0 2.625 4.5v21c0 1.034.841 1.875 1.875 1.875h21a1.877 1.877 0 0 0 1.875-1.875v-21A1.877 1.877 0 0 0 25.5 2.625Z" fill="#fff"/><path d="M17.499 19.51h-4.303v.002h-.87a.375.375 0 0 1-.34-.262L9.489 9.88a.587.587 0 0 0-.02-.06l-.054-.204a.382.382 0 1 0-.74.197l2.173 8.16h.003l.546 2.044a.374.374 0 0 0 .34.261h5.495l.044-.003h.223a.383.383 0 1 0 0-.766Z" fill="#fff"/><path d="m21.328 22.988-1.21-5.086a.903.903 0 0 0-.831-.632h-.81a2.928 2.928 0 0 0-3.382-4.014l-.042-.156c-.004-.016-.013-.035-.018-.053l-.202-.773a1.503 1.503 0 0 0-1.838-1.073 1.503 1.503 0 0 0-1.072 1.838h-.002l.09.34h-.008l.384 1.437.489 1.86.004-.002.38 1.46a.898.898 0 0 0 .82.629l4.684-.003.571 2.417h-.003l.01.038a.381.381 0 0 0 .01.038l.5 2.107a.764.764 0 0 0 .787.505.77.77 0 0 0 .696-.835l-.007-.042ZM14.367 9.18a1.498 1.498 0 1 1-2.996-.001 1.498 1.498 0 0 1 2.996.001Z" fill="#fff"/></svg>
